X:1
T:Etude nr 3
T:Etude nr 3
T:Opus 86
T:Richard Hofmann
C:Richard Hofmann
L:1/8
Q:3/8=35
M:6/8
K:G
V:1 alto nm="Piano" snm="Pno."
V:1
 GDD FDD | !4!AD!0!A BAG | !4!AEE GEG | FED CB,A, | G,D,D, F,D,D, | A,D,A, B,A,G, | A,B,C B,DG | %7
 FD!4!A GDG | FBB cBB | GBB cBB | Add edd | Bdd edB | cBA GFE | !1!^D!2!FD !2!B,!1!^A,B, | %14
 CB,A, G,F,E, | ^D,F,F, B,F,F, | E,G,G, B,G,G, | F,A,A, DA,A, | G,B,B, DB,D | EB,E GFE | %20
 !1!^DB,B, ^A,B,=A, | G,E,^D, E,G,A, | B,CB, ^A,B,!1!^D | EB,E GFE | FB,B, !4!AB,B, | FB,F A^GF | %26
 ^GBB GEE | F!4!AA F^CC | B,EE ^GEE | FB!0!A FE^D | EB,B, G,B,B, | EB,E GFE | FB,B, ^A,B,B, | %33
 F,B,B, CB,A, | G,B,B, EB,B, | A,CC ECC | DGG BGG | FED CB,A, | G,D,D, F,D,D, | A,D,A, B,G,G, | %40
 A,E,A, CB,A, | G,D,D, F,D,F, | G,D,G, F,D,F, | A,F,A, B,G,B, | A,CE ABc | BGE DEF | GDD FDD | %47
 !4!ADA !0!BAG | AEA cBA | GDD FDF | GDG FDF | !4!AD!0!A BGB | !4!AE!0!A cAE | GDB, CB,A, | %54
 G,D,D, B,G,G, | DA,D FED | GDD BGB | dAd cBA | GBB GDD | B,!4!DD B,G,D, | G,2 z [G,DB]2 z | %61
 ([G,G]3 [G,G]2) z |] %62

